public/steps/chat.svg

<svg width="32" height="32" viewBox="0 0 32 32" fill="none" xmlns="http://www.w3.org/2000/svg">
<path d="M28.0128 24.5317C29.9202 22.8317 31.0003 20.5657 31.0003 18.2143C31.0003 15.7153 29.8304 13.3782 27.7061 11.6331C25.6386 9.93519 22.902 9 20 9C17.098 9 14.3614 9.93519 12.2942 11.6332C10.1699 13.3782 9 15.7153 9 18.2143C9 20.7133 10.1699 23.0504 12.2942 24.7956C14.3614 26.4936 17.098 27.4287 20 27.4287C20.3867 27.4287 20.7757 27.4116 21.1616 27.3777L21.8207 27.949C24.0914 29.9167 26.9953 30.9999 30 31H31V28.8714L30.7071 28.5786C29.5518 27.4198 28.6362 26.0446 28.0128 24.5317ZM23.1306 26.4375L21.808 25.2912L21.367 25.3452C20.9134 25.4007 20.4569 25.4285 20 25.4286C15.0375 25.4286 11 22.1922 11 18.2143C11 14.2364 15.0375 11 20 11C24.9625 11 29 14.2363 29 18.2143C29 20.1962 28.0113 22.0464 26.2159 23.4242L25.6399 23.8661L25.9057 24.6183C26.4503 26.1545 27.2508 27.5876 28.2733 28.8569C26.3691 28.539 24.5895 27.7018 23.1306 26.4375Z" fill="#94A3B8"/>
<path d="M3.76156 19.8423C4.69764 18.6573 5.4326 17.3266 5.93706 15.9033L6.20081 15.1549L5.62537 14.7133C3.93237 13.4141 3 11.6705 3 9.80356C3 6.05206 6.81306 3 11.5 3C14.948 3 17.9229 4.65188 19.2548 7.01875C19.5021 7.00675 19.7505 7 20 7C20.5011 7 20.9977 7.02431 21.4896 7.07294C20.9749 5.7395 20.0811 4.52225 18.8521 3.51288C16.8795 1.89244 14.2687 1 11.5 1C8.73125 1 6.1205 1.89244 4.14775 3.51288C2.11787 5.18031 1 7.41437 1 9.80356C1 12.0411 2.022 14.197 3.82812 15.8188C3.23871 17.2372 2.37747 18.5266 1.29294 19.6143L1 19.9072V22H2C3.84919 21.9998 5.67295 21.5691 7.32694 20.7422C7.14557 20.0548 7.0393 19.3497 7.01 18.6394C6.00611 19.2277 4.90654 19.6349 3.76156 19.8423Z" fill="#94A3B8"/>
</svg>

<svg xmlns="http://www.w3.org/2000/svg" width="32" height="32" fill="none"><path fill="#94A3B8" d="M28.01 24.53A8.5 8.5 0 0 0 31 18.21c0-2.5-1.17-4.83-3.3-6.58A12.13 12.13 0 0 0 20 9c-2.9 0-5.64.94-7.7 2.63A8.48 8.48 0 0 0 9 18.21c0 2.5 1.17 4.84 3.3 6.59a12.12 12.12 0 0 0 8.86 2.58l.66.57A12.49 12.49 0 0 0 30 31h1v-2.13l-.3-.3a12.45 12.45 0 0 1-2.69-4.04Zm-4.88 1.9-1.32-1.14-.44.06c-.46.05-.91.08-1.37.08-4.96 0-9-3.24-9-7.22 0-3.97 4.04-7.21 9-7.21s9 3.24 9 7.21c0 1.99-.99 3.84-2.78 5.21l-.58.45.27.75a14.46 14.46 0 0 0 2.36 4.24 10.49 10.49 0 0 1-5.14-2.42Z"/><path fill="#94A3B8" d="M3.76 19.84a13.78 13.78 0 0 0 2.18-3.94l.26-.75-.57-.44A6.19 6.19 0 0 1 3 9.81C3 6.04 6.81 3 11.5 3c3.45 0 6.42 1.65 7.75 4.02a15.37 15.37 0 0 1 2.24.05 8.67 8.67 0 0 0-2.64-3.56A11.57 11.57 0 0 0 11.5 1c-2.77 0-5.38.9-7.35 2.51A8.1 8.1 0 0 0 1 9.81c0 2.23 1.02 4.39 2.83 6a11.77 11.77 0 0 1-2.54 3.8l-.29.3V22h1c1.85 0 3.67-.43 5.33-1.26a9.83 9.83 0 0 1-.32-2.1c-1 .59-2.1 1-3.25 1.2Z"/></svg>
